X:1
T: Pittengardner's Rant
C:
R:Strathspey
Q: 128
K:D
M:4/4
L:1/16
|:A,3D DDD2 ((3F2G2A2) ((3B2c2d2) |((3B2A2G2) ((3F2E2D2) CE3 E3F|A,3D DDD2 ((3F2G2A2) ((3B2c2d2) |((3e2f2g2) ((3a2b2c'2) d'd3 d4|
A,3D DDD2 ((3F2G2A2) ((3B2c2d2) |((3B2A2G2) ((3F2E2D2) CE3 E3F|A,3D DDD2 ((3F2G2A2) ((3B2c2d2) |((3e2f2g2) ((3a2b2c'2) d'd3 d2c'2|
d'2d2 b2d2 a2d2 f2d'2|((3c2d2e2) ((3d2c2B2) cA3 Ac'3|d'2d2 b2d2 a2d2 f2d'2|((3e2f2g2) ((3a2b2c'2) d'd3 d3c'|
((3d'2d2d2) ((3b2d2d2) ((3a2d2d2) ((3f2d'2d'2) |((3c2d2e2) ((3d2c2B2) cA3 A3c|d3D DDD2 ((3F2G2A2) ((3B2c2d2) |((3e2f2g2) ((3a2b2c'2) d'd3 d4:|
